app/dist/common/images/tc-on-nm.svg

<svg fill="none" height="18" width="18" xmlns="http://www.w3.org/2000/svg"><path d="m0 0h18v18h-18z" fill="#f0f3fa"/><g clip-rule="evenodd" fill-rule="evenodd"><path d="m6.713 4h4.574a2.719 2.719 0 0 1 2.713 2.703v4.594a2.719 2.719 0 0 1 -2.713 2.703h-4.574a2.719 2.719 0 0 1 -2.713-2.703v-4.594a2.719 2.719 0 0 1 2.713-2.703z" fill="#017eff"/><path d="m6.193 7h2.664c.076 0 .143.052.143.111 0 .626-.36.889-.797.889h-.203v2.288c0 .392-.338.712-.84.712-.093 0-.16-.059-.16-.124v-2.876h-.807c-.1 0-.193-.065-.193-.15v-.7c0-.085.084-.15.193-.15zm5.807.004h-1.409s-1.59-.145-1.59 1.371v1.253s-.094 1.372 1.467 1.372h.532s1 0 1-1h-1.213c-.334 0-.787 0-.787-.919 0-1.081.192-1.081.693-1.081h.552s.755 0 .755-.996z" fill="#f0f3fa"/></g></svg>

<!-- by TradingView --><svg width="18" height="18" fill="none" xmlns="http://www.w3.org/2000/svg"><path fill="#F0F3FA" d="M0 0h18v18H0z"/><path fill-rule="evenodd" clip-rule="evenodd" d="M6.713 4h4.574A2.719 2.719 0 0 1 14 6.703v4.594A2.719 2.719 0 0 1 11.287 14H6.713A2.719 2.719 0 0 1 4 11.297V6.703A2.719 2.719 0 0 1 6.713 4Z" fill="#017EFF"/><path fill-rule="evenodd" clip-rule="evenodd" d="M6.193 7h2.664c.076 0 .143.052.143.111C9 7.737 8.64 8 8.203 8H8v2.288c0 .392-.338.712-.84.712-.093 0-.16-.059-.16-.124V8h-.807C6.093 8 6 7.935 6 7.85v-.7c0-.085.084-.15.193-.15ZM12 7.004h-1.409s-1.59-.145-1.59 1.371v1.253S8.907 11 10.468 11H11s1 0 1-1h-1.213c-.334 0-.787 0-.787-.919C10 8 10.192 8 10.693 8h.552S12 8 12 7.004Z" fill="#F0F3FA"/></svg>
